X:146
T:Johnston's Hornpipe
R:hornpipe
H:Four-part version. See #91 for three-part version.
Z:id:hn-hornpipe-146
M:C|
K:D
dB |: AFdA ^GdB^G | AFdA ^GdB^G | ABcB AGFG | AGFG EFG^G |
AFdA ^GdB^G | AFdA ^GdB^G | ABcB AGFG |1 ~E3F DEFG :|2 ~E3F D2 ||
|: dc | Bcde fdBf | gfeg fdBd | (3ccc F2 (3ccc F2 | cF^Ac fedc |
Bcde fdBf | gfeg fdBd | (3ccc FF cF^Ac | fedc B2 :|
|: FG | Adfe dcBA | GBeB gfed | cec'b agfe | (3fgf (3efe d2FG |
Adfe dcBA | GBeB gfed | cec'b agfe | (3dfa (3d'af d2 :|
|: (3abc' | d'2ad' (3dfa d'a | (3bc'b gb e2c'b | (3aba ge cABc | defa ^gabc' |
d'2ad' (3dfa d'a | (3bc'b gb e2c'b | (3aba ge cABc | d2dc d2 :|

